X: 16
T: Le souvenir i
N: Derived from Tin3006-Le_souvenir_I.krn
C: Johannes Tinctoris
%%abc-version 2.0
%%abcx-abcm2ps-target-version 5.9.1 (29 Sep 2008)
%%abc-creator hum2abc beta
%%abcx-conversion-date 2019/02/17 07:34:55
%%abc-edited-by Jesse Rodin
%%abc-edited-by Chris Gage 01-29-2015
%%abcx-initial-encoding-date 2015/02/22/
%%humdrum-veritas 3506835879
%%humdrum-veritas-data 179466806
%%linebreak <none>
%%barnumbers 0
L: 1/4
M: 3/1
Q: 1/2=120
%%staves {1 2}
V: 1 clef=treble
V: 2 clef=bass
K: F
[V:1] F6C2F2EF :
[V:2] F,12- :
[V:1] GFEDC2D3CDF | 
[V:2] F,4A,4B,4 | 
[V:1] E3FEDCB,C4 :
[V:2] C8A,4- :
[V:1] z2C2F4GABc | 
[V:2] A,4z4C4 | 
[V:1] A2GFG3FEDC2- :
[V:2] F,4E,4A,4- :
[V:1] CDEFG2F4E2 | 
[V:2] A,4G,8 | 
[V:1] F2EDEDCB,CB,A,G, :
[V:2] F,8z4 :
[V:1] A,6C3B,A,G, | 
[V:2] C4A,8 | 
[V:1] A,2F,3G,A,B,G,4 :
[V:2] z4C4B,4 :
[V:1] E,4z2F,3G,A,2- | 
[V:2] A,2G,2A,8 | 
[V:1] A,G,A,B,C6D2- :
[V:2] F,8z4 :
[V:1] DEFGE2DEF3E | 
[V:2] F,4G,4A,4 | 
[V:1] DCD3CB,A,B,A,G,F, :
[V:2] F,8G,4 :
[V:1] G,A,B,CD2C3=B,=B,A, | 
[V:2] E,4D,8 | 
[V:1] [M:3/1](3:2:2C6z6 :
[V:2] C,8- :
[V:1] (3:2:5x6E6D2C2D2 | 
[V:2] C,12 | 
[V:1] (3:2:5E6D2E2F2G6 :
[V:2] z4z4C4- :
[V:1] (3:2:7A2B2c2A6G2A2B2 | 
[V:2] C4F,8 | 
[V:1] (3:2:5c4B2A2G2F2[M:3/1]E4 :
[V:2] A,4B,4C4- :
[V:1] F4G4A4 | 
[V:2] C2A,2B,4C4 | 
[V:1] [M:3/1](3:2:9F3GA2B3GB2A3GF2 :
[V:2] D12 :
[V:1] (3E2G2A2B2(3:2:4AG2F2G4 | 
[V:2] C4B,8 | 
[V:1] (3:2:8A2G2F2E2F2D2E4z2 :
[V:2] A,8z4 :
[V:1] (3E2F2G2(9:8:9A B d c d e f e d | 
[V:2] C4F,8 | 
[V:1] (9:8:9c B A G F E D C B,[M:3/1](7:4:4A,5/12B,5/12C5/12D/- :
[V:2] A,4B,4C4- :
[V:1] (7:4:8D/E5/12F5/12G5/12G5/E5/12C5/12D4 | 
[V:2] C4=B,8 | 
[V:1] [M:3/1]C4z2C3DE2- :
[V:2] C8z4 :
[V:1] EDEFG4C2F2- | 
[V:2] A,4B,4A,4 | 
[V:1] FGABc2BAG2F2- :
[V:2] F,8B,4- :
[V:1] F2B4AGA2c2- | 
[V:2] B,4G,4F,4- | 
[V:1] cBA3GFED2G2- :
[V:2] F,4A,4B,4 :
[V:1] G2A4G4F2 | 
[V:2] G,4A,8 | 
[V:1] G2B3GB3AF2- :
[V:2] G,8D4- :
[V:1] FGA3GA3GE2- | 
[V:2] D4C8 | 
[V:1] EFG3FEDCB,A,G, :
[V:2] B,8C4 :
[V:1] F,2F2GFEDE2DE | 
[V:2] A,4G,8 | 
[V:1] F12 |]  
[V:2] F,12 |]  



